img/nav/parapluie.svg

<svg xmlns="http://www.w3.org/2000/svg" width="400" height="400"><defs><linearGradient id="a" x1="0%" y1="8%" x2="100%" y2="92%"><stop offset="15%" style="stop-color:#12d3bc;stop-opacity:1"/><stop offset="85%" style="stop-color:#0074ff;stop-opacity:1"/></linearGradient></defs><path style="fill:url(#a)" d="M193.359 1.085c-5.092 2.225-11.328 9.959-11.328 14.05 0 .77-1.294 1.289-4.101 1.645C81.442 29.014.781 121.308.781 219.478c0 9.465 1.003 11.407 6.334 12.257 4.57.729 6.599-.635 8.497-5.711 16.136-43.151 63.393-44.377 79.254-2.058 3.764 10.043 13.342 11.615 16.517 2.711 12.871-36.1 51.723-45.173 72.963-17.04l3.154 4.177-.017 72.585c-.019 80.595.294 75.657-5.145 81.096-10.776 10.776-27.65 2.433-27.65-13.671 0-6.108-6.79-12.418-13.363-12.418-20.898 0-15.772 37.659 7.126 52.352 20.908 13.417 50.241 5.167 61.231-17.223 5.128-10.446 5.104-10.033 5.134-90.316l.028-71.985 3.47-4.713c19.701-26.763 58.408-19.307 70.395 13.558 3.532 9.685 12.99 12.77 16.117 5.257 9.859-23.683 20.173-33.285 37.641-35.042 18.359-1.847 39.512 14.062 43.197 32.489.736 3.677 4.571 6.488 8.024 5.88 4.753-.837 5.531-2.53 5.528-12.023-.031-95.577-79.92-189.421-172.382-202.491l-6.369-.9-1.359-3.557C215.2 2.464 202.898-3.082 193.359 1.085"/></svg>

<svg id="svg" xmlns="http://www.w3.org/2000/svg" xmlns:xlink="http://www.w3.org/1999/xlink" width="400" height="400" viewBox="0, 0, 400, 400">
<defs>
<linearGradient id="lgrad" x1="0%" y1="8%" x2="100%" y2="92%">
<stop offset="15%" style="stop-color:rgb(18,211,188);stop-opacity:1.00"/>
<stop offset="85%" style="stop-color:rgb(0,116,255);stop-opacity:1.00"/>
</linearGradient>
</defs>
<path style="fill:url(#lgrad);" d="M193.359 1.085 C 188.267 3.310,182.031 11.044,182.031 15.135 C 182.031 15.905,180.737 16.424,177.930 16.780 C 81.442 29.014,0.781 121.308,0.781 219.478 C 0.781 228.943,1.784 230.885,7.115 231.735 C 11.685 232.464,13.714 231.100,15.612 226.024 C 31.748 182.873,79.005 181.647,94.866 223.966 C 98.630 234.009,108.208 235.581,111.383 226.677 C 124.254 190.577,163.106 181.504,184.346 209.637 L 187.500 213.814 187.483 286.399 C 187.464 366.994,187.777 362.056,182.338 367.495 C 171.562 378.271,154.688 369.928,154.688 353.824 C 154.688 347.716,147.898 341.406,141.325 341.406 C 120.427 341.406,125.553 379.065,148.451 393.758 C 169.359 407.175,198.692 398.925,209.682 376.535 C 214.810 366.089,214.786 366.502,214.816 286.219 L 214.844 214.234 218.314 209.521 C 238.015 182.758,276.722 190.214,288.709 223.079 C 292.241 232.764,301.699 235.849,304.826 228.336 C 314.685 204.653,324.999 195.051,342.467 193.294 C 360.826 191.447,381.979 207.356,385.664 225.783 C 386.400 229.460,390.235 232.271,393.688 231.663 C 398.441 230.826,399.219 229.133,399.216 219.640 C 399.185 124.063,319.296 30.219,226.834 17.149 L 220.465 16.249 219.106 12.692 C 215.200 2.464,202.898 -3.082,193.359 1.085">
</path>
</svg>
